icons/ArrowDown_filled.svg

<svg width="24" height="24" viewBox="0 0 24 24" fill="none" xmlns="http://www.w3.org/2000/svg">
<path fill-rule="evenodd" clip-rule="evenodd" d="M12.8839,19.8839c-0.4882,0.4881 -1.2796,0.4881 -1.7678,0l-5.99998,-6c-0.48816,-0.4882 -0.48816,-1.2796 0,-1.7678c0.48815,-0.4882 1.27961,-0.4882 1.76776,0l3.86612,3.8661v-10.98221c0,-0.69036 0.5596,-1.25 1.25,-1.25c0.6904,0 1.25,0.55964 1.25,1.25v10.98221l3.8661,-3.8661c0.4882,-0.4881 1.2796,-0.4881 1.7678,0c0.4881,0.4882 0.4881,1.2796 0,1.7678z" fill="#002B51"/>
</svg>

<svg width="24" height="24" viewBox="0 0 24 24" fill="none" xmlns="http://www.w3.org/2000/svg">
<path fill-rule="evenodd" clip-rule="evenodd" d="M12.8839 19.8839C12.3957 20.372 11.6043 20.372 11.1161 19.8839L5.11612 13.8839C4.62796 13.3957 4.62796 12.6043 5.11612 12.1161C5.60427 11.6279 6.39573 11.6279 6.88388 12.1161L10.75 15.9822L10.75 4.99999C10.75 4.30963 11.3096 3.74999 12 3.74999C12.6904 3.74999 13.25 4.30963 13.25 4.99999L13.25 15.9822L17.1161 12.1161C17.6043 11.628 18.3957 11.628 18.8839 12.1161C19.372 12.6043 19.372 13.3957 18.8839 13.8839L12.8839 19.8839Z" fill="#002B51"/>
</svg>
